X:1
T:Gobaith, 87.87 D
T:Gobaith, 87.87 D
T:Robert Davies (Cyndeyrn), 1860
T:Public Domain Courtesy of the Cyber Hymnal™
C:Robert Davies (Cyndeyrn), 1860
Z:Public Domain
Z:Courtesy of the Cyber Hymnal™
%%score ( 1 2 ) ( 3 4 )
L:1/8
Q:1/4=107
M:4/4
K:A
V:1 treble 
V:2 treble 
V:3 bass 
V:4 bass 
V:1
 [CA]2 [CE]2 [Ec]2 [FA]2 | [Ee]2 (dc) [Ec]2 [EB]2 | [^Ec]2 [FA]2 d2 ([Ac][FB]) | %3
 [Ec]2 [DB]2 [CA]4 | [CA]2 [CE]2 [Ec]2 [FA]2 | [Ee]2 (dc) [Ec]2 [EB]2 | %6
 [^Ec]2 [FA]2 d2 ([Ac][FB]) | [Ec]2 [DB]2 [CA]4 | [CF]2 [CG]2 [CA]2 ([CG][^B,F]) | %9
 [CE]2 [C^E]2 (F>G) [CF]2 | [FA]2 B2 [Fc]2 ([GB][FA]) | [FA]2 [^EG]2 F4 x | %12
 [CA]2 [CE]2 [Ec]2 [FA]2 | [Ee]2 (dc) [Ec]2 [EB]2 | [Ec]2 [FA]2 [Fd]2 (cB) | [Ec]2 [DB]2 [CA]4 |] %16
V:2
 x8 | x2 F2 x4 | x4 (FG) x2 | x8 | x8 | x2 F2 x4 | x4 (FG) x2 | x8 | x8 | x4 C2 x2 | x2 (^E>F) x4 | %11
 x4 F4 x | x8 | x2 F2 x4 | x6 F2 | x8 |] %16
V:3
 [A,,E,]2 [A,,A,]2 A,2 [F,C]2 | [C,A,]2 [D,A,]2 [E,A,]2 [E,G,]2 | [C,G,]2 [F,A,]2 [B,,B,]2 A,2 | %3
 [E,A,]2 [E,G,]2 [A,,A,]4 | [A,,E,]2 [A,,A,]2 A,2 [F,C]2 | [C,A,]2 [D,A,]2 [E,A,]2 [E,G,]2 | %6
 [C,G,]2 [F,A,]2 [B,,B,]2 A,2 | [E,A,]2 [E,G,]2 [A,,A,]4 | [F,A,]2 [^E,A,]2 A,F, ([=E,G,][D,A,]) | %9
 [C,A,]2 [C,G,]2 (A,>B,) [F,,A,]2 | [F,C]2 [G,B,]2 A,2 [B,D]2 | C3 z B, [F,A,]4 | %12
 [A,,E,]2 [A,,A,]2 A,2 [F,C]2 | [C,A,]2 [D,A,]2 [E,A,]2 [E,G,]2 | A,2 [F,C]2 (B,A,) [D,A,]2 | %15
 [E,A,]2 [E,G,]2 [A,,A,]4 |] %16
V:4
 x4 A,2 x2 | x8 | x6 (C,D,) | x8 | x4 A,2 x2 | x8 | x6 (C,D,) | x8 | x4 F,2 x2 | x4 F,2 x2 | %10
 x4 A,2 x2 | C2 C,2 x5 | x4 A,2 x2 | x8 | A,2 D,2 x4 | x8 |] %16

